X: 1
P: The Earl of Mansfield
C: J. McEwan
C: Scots Guards I, arr. T. Traub 2-24-2004
R: march
M: 2/4
L: 1/8
K: D
|: f/e/|"D"d>e dA|d/e/f/g/ ag/f/|"A"e>f eA|c/d/e/f/ gf/e/|"D"d>e dA|d/e/f/g/ ag/f/|"A7"ge cA|"D"d2 d :|
|: a/g/|"D"f>g fA|d/e/f/g/ ag/f/|"A"e>f eA|c/d/e/f/ gf/e/|"D"f>g fA|d/e/f/g/ ag/f/|"A7"ge cA|"D"d2 d :|
